flaticon/science/cells-1.svg

<svg xmlns="http://www.w3.org/2000/svg" width="32" height="32" viewBox="0 0 24 24">
    <path d="M 22.667969 4.710938 C 21.808594 4.550781 20.953125 5.121094 20.789062 6.015625 C 20.75 6.464844 20.832031 6.875 21.074219 7.242188 C 21.246094 7.464844 21.472656 7.652344 21.746094 7.773438 L 20.722656 13.542969 C 20.167969 13.59375 19.667969 13.933594 19.417969 14.445312 L 13.632812 13.421875 C 13.585938 12.851562 13.226562 12.335938 12.691406 12.09375 L 13.710938 6.378906 C 14.425781 6.316406 15.046875 5.765625 15.160156 5.039062 C 15.324219 4.183594 14.753906 3.324219 13.855469 3.164062 C 13.132812 3.023438 12.40625 3.410156 12.101562 4.078125 L 6.335938 3.054688 C 6.289062 2.34375 5.761719 1.710938 5.003906 1.570312 C 4.148438 1.40625 3.292969 1.980469 3.128906 2.875 C 3.023438 3.636719 3.417969 4.367188 4.085938 4.648438 L 3.070312 10.378906 C 2.769531 10.402344 2.492188 10.496094 2.230469 10.667969 C 1.902344 10.914062 1.660156 11.28125 1.578125 11.726562 C 1.441406 12.453125 1.828125 13.175781 2.492188 13.480469 L 1.476562 19.210938 C 0.78125 19.273438 0.164062 19.792969 0.0273438 20.539062 C -0.136719 21.394531 0.4375 22.253906 1.332031 22.414062 C 1.414062 22.457031 1.535156 22.457031 1.617188 22.457031 C 2.394531 22.457031 3.085938 21.925781 3.210938 21.109375 C 3.347656 20.386719 2.960938 19.664062 2.296875 19.355469 L 3.308594 13.640625 C 3.886719 13.585938 4.398438 13.222656 4.636719 12.683594 L 10.40625 13.707031 C 10.46875 14.402344 10.988281 15.019531 11.734375 15.15625 C 11.816406 15.195312 11.9375 15.195312 12.019531 15.195312 C 12.347656 15.195312 12.671875 15.113281 12.957031 14.910156 C 13.183594 14.742188 13.371094 14.511719 13.492188 14.242188 L 19.257812 15.261719 C 19.300781 15.972656 19.828125 16.609375 20.585938 16.746094 C 20.667969 16.785156 20.789062 16.785156 20.871094 16.785156 C 21.199219 16.785156 21.523438 16.664062 21.808594 16.5 C 22.136719 16.257812 22.382812 15.890625 22.464844 15.441406 C 22.601562 14.714844 22.210938 13.988281 21.542969 13.683594 L 22.5625 7.929688 C 23.277344 7.863281 23.894531 7.316406 23.972656 6.589844 C 24.136719 5.730469 23.5625 4.875 22.667969 4.710938 Z M 13.570312 3.9375 C 13.652344 3.9375 13.691406 3.9375 13.734375 3.9375 C 14.183594 4.019531 14.46875 4.425781 14.386719 4.875 C 14.304688 5.324219 13.898438 5.609375 13.449219 5.527344 C 13 5.445312 12.714844 5.039062 12.796875 4.628906 C 12.804688 4.582031 12.804688 4.53125 12.796875 4.484375 C 12.917969 4.15625 13.210938 3.9375 13.570312 3.9375 Z M 3.945312 3.039062 C 4.023438 2.632812 4.351562 2.347656 4.757812 2.347656 C 4.800781 2.347656 4.839844 2.347656 4.882812 2.386719 C 5.332031 2.429688 5.617188 2.875 5.535156 3.324219 C 5.464844 3.714844 5.148438 3.980469 4.777344 3.992188 C 4.730469 3.988281 4.683594 3.988281 4.636719 3.976562 C 4.617188 3.972656 4.59375 3.972656 4.574219 3.972656 C 4.378906 3.925781 4.183594 3.808594 4.066406 3.652344 C 3.945312 3.449219 3.902344 3.242188 3.945312 3.039062 Z M 2.394531 20.988281 C 2.3125 21.4375 1.902344 21.722656 1.457031 21.640625 C 1.007812 21.558594 0.722656 21.152344 0.804688 20.703125 C 0.882812 20.292969 1.210938 20.007812 1.617188 20.007812 C 1.621094 20.007812 1.628906 20.007812 1.632812 20.011719 C 1.652344 20.023438 1.675781 20.03125 1.703125 20.039062 C 1.714844 20.046875 1.726562 20.050781 1.742188 20.050781 C 2.191406 20.132812 2.515625 20.539062 2.394531 20.988281 Z M 3.179688 12.84375 C 3.136719 12.816406 3.09375 12.796875 3.046875 12.789062 C 2.996094 12.78125 2.945312 12.78125 2.898438 12.789062 C 2.539062 12.652344 2.320312 12.289062 2.394531 11.890625 C 2.433594 11.6875 2.558594 11.484375 2.71875 11.359375 C 2.84375 11.238281 3.003906 11.199219 3.167969 11.199219 C 3.25 11.199219 3.292969 11.199219 3.332031 11.238281 C 3.71875 11.308594 3.984375 11.625 3.996094 11.996094 C 3.996094 12.042969 3.992188 12.089844 3.984375 12.136719 C 3.980469 12.160156 3.980469 12.179688 3.980469 12.203125 C 3.894531 12.589844 3.566406 12.851562 3.179688 12.84375 Z M 4.339844 10.859375 C 4.207031 10.71875 4.046875 10.601562 3.867188 10.515625 L 4.882812 4.835938 C 5.453125 4.792969 5.984375 4.425781 6.226562 3.894531 L 11.9375 4.917969 C 11.980469 5.488281 12.347656 6.019531 12.878906 6.261719 L 11.859375 11.953125 C 11.585938 11.980469 11.320312 12.078125 11.097656 12.234375 C 10.847656 12.402344 10.640625 12.632812 10.511719 12.910156 L 4.800781 11.890625 C 4.773438 11.488281 4.605469 11.121094 4.339844 10.859375 Z M 12.46875 14.257812 C 12.304688 14.378906 12.0625 14.421875 11.855469 14.378906 C 11.410156 14.296875 11.121094 13.890625 11.203125 13.441406 C 11.285156 13.035156 11.613281 12.75 12.019531 12.75 C 12.0625 12.75 12.101562 12.75 12.144531 12.789062 C 12.5625 12.863281 12.835938 13.222656 12.808594 13.636719 C 12.800781 13.652344 12.796875 13.667969 12.796875 13.6875 C 12.792969 13.707031 12.789062 13.730469 12.789062 13.75 C 12.746094 13.945312 12.625 14.140625 12.46875 14.257812 Z M 21.648438 15.316406 C 21.605469 15.523438 21.484375 15.726562 21.320312 15.847656 C 21.15625 15.96875 20.914062 16.011719 20.707031 15.96875 C 20.261719 15.890625 19.976562 15.480469 20.054688 15.03125 C 20.136719 14.625 20.464844 14.339844 20.871094 14.339844 C 20.914062 14.339844 20.953125 14.339844 20.996094 14.378906 C 21.441406 14.460938 21.730469 14.871094 21.648438 15.316406 Z M 23.195312 6.464844 C 23.125 6.855469 22.808594 7.121094 22.433594 7.132812 C 22.390625 7.105469 22.347656 7.085938 22.300781 7.078125 C 22.242188 7.066406 22.183594 7.070312 22.132812 7.082031 C 21.972656 7.023438 21.824219 6.921875 21.730469 6.792969 C 21.605469 6.628906 21.566406 6.382812 21.605469 6.179688 C 21.6875 5.773438 22.015625 5.488281 22.421875 5.488281 C 22.464844 5.488281 22.503906 5.488281 22.542969 5.527344 C 22.992188 5.609375 23.277344 6.019531 23.195312 6.464844 Z M 23.195312 6.464844"/>
</svg>

<svg xmlns="http://www.w3.org/2000/svg" width="32" height="32" viewBox="0 0 24 24">
    <path d="M22.668 4.71c-.86-.16-1.715.411-1.879 1.306-.039.449.043.859.285 1.226.172.223.399.41.672.531l-1.023 5.77c-.555.05-1.055.39-1.305.902l-5.785-1.023a1.612 1.612 0 0 0-.942-1.328l1.02-5.715a1.617 1.617 0 0 0 1.45-1.34 1.608 1.608 0 0 0-1.306-1.875 1.603 1.603 0 0 0-1.753.914L6.336 3.055A1.627 1.627 0 0 0 5.004 1.57a1.613 1.613 0 0 0-1.875 1.305c-.106.762.289 1.492.957 1.773l-1.016 5.73c-.3.024-.578.118-.84.29a1.7 1.7 0 0 0-.652 1.059 1.61 1.61 0 0 0 .914 1.753l-1.015 5.73a1.626 1.626 0 0 0-1.45 1.33 1.611 1.611 0 0 0 1.305 1.874c.082.043.203.043.285.043.778 0 1.469-.531 1.594-1.348a1.615 1.615 0 0 0-.914-1.754l1.012-5.714a1.62 1.62 0 0 0 1.328-.957l5.77 1.023a1.626 1.626 0 0 0 1.327 1.45.72.72 0 0 0 .286.038c.328 0 .652-.082.937-.285.227-.168.414-.398.535-.668l5.766 1.02c.043.71.57 1.347 1.328 1.484a.72.72 0 0 0 .285.04c.328 0 .652-.122.938-.286.328-.242.574-.61.656-1.059a1.616 1.616 0 0 0-.922-1.757l1.02-5.754c.714-.067 1.332-.614 1.41-1.34a1.615 1.615 0 0 0-1.305-1.88zm-9.098-.772h.164c.45.082.735.488.653.937a.794.794 0 0 1-.938.652c-.449-.082-.734-.488-.652-.898a.449.449 0 0 0 0-.145.814.814 0 0 1 .773-.546zm-9.625-.899c.078-.406.407-.691.813-.691.043 0 .082 0 .125.039.449.043.734.488.652.937a.794.794 0 0 1-.758.668c-.047-.004-.093-.004-.14-.015-.02-.004-.043-.004-.063-.004a.92.92 0 0 1-.508-.32c-.12-.204-.164-.41-.12-.614zm-1.55 17.95a.796.796 0 0 1-.938.652.794.794 0 0 1-.652-.938c.078-.41.406-.695.812-.695.004 0 .012 0 .016.004.02.011.043.02.07.027a.066.066 0 0 0 .04.012c.448.082.773.488.652.937zm.785-8.145a.355.355 0 0 0-.133-.055.473.473 0 0 0-.149 0 .794.794 0 0 1-.503-.898.923.923 0 0 1 .324-.532.62.62 0 0 1 .449-.16c.082 0 .125 0 .164.04.387.07.652.386.664.757a.854.854 0 0 1-.012.14c-.004.024-.004.044-.004.067a.8.8 0 0 1-.8.64zm1.16-1.985a1.6 1.6 0 0 0-.473-.343l1.016-5.68a1.636 1.636 0 0 0 1.344-.941l5.71 1.023c.043.57.41 1.102.942 1.344l-1.02 5.691c-.273.027-.539.125-.761.281-.25.168-.457.399-.586.676L4.8 11.89a1.598 1.598 0 0 0-.461-1.03zm8.129 3.399c-.164.12-.406.164-.614.12a.797.797 0 0 1-.652-.937c.082-.406.41-.691.817-.691.043 0 .082 0 .125.04a.795.795 0 0 1 .664.847.108.108 0 0 0-.012.05.342.342 0 0 0-.008.063.9.9 0 0 1-.32.508zm9.18 1.058a.905.905 0 0 1-.329.532c-.164.12-.406.164-.613.12a.798.798 0 0 1-.652-.937c.082-.406.41-.691.816-.691.043 0 .082 0 .125.039a.8.8 0 0 1 .652.937zm1.546-8.851a.795.795 0 0 1-.761.668.355.355 0 0 0-.133-.055.403.403 0 0 0-.168.004.871.871 0 0 1-.403-.289.806.806 0 0 1-.125-.613c.082-.407.41-.692.817-.692.043 0 .082 0 .121.04.45.081.734.492.652.937zm0 0"/>
</svg>
